X:1
T:Axman's Jazz
T:Axman's Jazz
T:(Don't Scare Me Papa)
T:Joseph John Davilla 1919
C:Joseph John Davilla
%%score { 1 | 2 }
L:1/8
M:4/4
K:Bb
V:1 treble nm="Piano" snm="Pno."
V:2 bass 
V:1
 z7 ^G/=G/ |: A e2 [GA] d2 [Fc]c/c/ | d b2 d a2 g2 |1 z [EF]2 [EF] [EA]2 [EG]2 ||1 %4
 GFDG F3 ^G/G/ :|2 z [EF]2 [EF] [EG]2 [EA][DB]- || [DB]6 z2 | F e2 F d2 c2 | D B2 D A2 G2 | %9
 z [EF]2 [EF] [EA]2 [EG]2 | GFDG F4 | F e2 F d2 c2 | D B2 D A2 G2 | z [EF]2 [EF] [EG]2 [EA][DB]- | %14
 [DB]6 z2 |: D2 z2 G3 A | BAG B2 A G2 |1 [^Fcd]4 d'4 ||1 d^cd^d =d=cBA :|2 [^Fcd]6 z2 ||2 %20
 z2 [C^FA]2 [DG]2 z2 |: D2 z2 G3 A | BAG B2 A G2 |1 [^Fcd]4 d'4 ||1 d^cd^d =d=cBA :|2 %25
 [^Fcd]6 z2 ||2 z2 [C^FA]2 [DG]2 z ^G/=G/ |: A e2 [GA] d2 [Fd]2 | D B2 D A2 G2 |1 %29
 z [EF]2 [EF] [EA]2 [EG]2 ||1 GFDG F3 ^G/=G/ :|2 z [EF]2 [EF] [EG]2 [EA][DB]- ||2 %32
 [DB]2 B2 [C^Fc]2 [D=Fd]2 |:[K:Eb] [EGe]2 B2 [EG]2 B2 | [EG]2 B [EG]2 B [EG]2- | %35
 [EG]2 [DB]2 [EG]2 [EB]2 | [DA]2 B [DA]2 B [DB]2 | z2 [DB]2 [DA]2 B2 | [DA]2 B[DA]- [DA]4 | %39
 z2 [aa']2 [ff']2 [dd']2 | [Bb] [Aa]2 [Gg]3 [Ff]2 | [Ee]2 B2 [EG]2 B2 | [EG]B [EG]2 B2 [EG]2- | %43
 [EG]2 [EB]2 [EG]2 [EB]2 | [DA]2 B [DA]2 B [DA]2 | z2 [DB]2 [DA]2 B2 | [DA]2 B [DA]2 B [DA]2 | %47
 z2 [Bb]2 [cc']2 [dd'][ee'] |1 z2 B2 [C^Fc]2 [D=Fd]2 :|2 z7 ^G/G/ |: %50
[K:Bb] A e2 [GA] d2 [Fc]^c/=c/ | d b2 d a2 g2 |1 z [EF]2 [EF] [EA]2 [EG]2 ||1 GFDG F3 ^G/=G/ :|2 %54
 z [EF]2 [EF] [EG]2 [EA]2 || [DB]G[^CF]G [DB]2 z2 | z f[^cdg]f [Bdb]2 z2 |] %57
V:2
 z8 |: [F,,F,]2 [F,A,E]2 [F,,F,]2 [E,,E,]2 | [D,,D,]2 [F,B,D]2 [F,,F,]2 [^G,,^G,]2 |1 %3
 [A,,A,]2 [F,A,]2 [F,,F,]2 [E,,E,]2 ||1 [D,,D,]2 [F,B,]2 [F,,F,]2 [^G,,^G,]2 :|2 %5
 [A,,A,]2 [F,A,]2 [F,,F,]2 [E,,E,]2 || [D,,D,]2 F,2 G,2 ^G,2 | A,2 [F,A,]2 [F,,F,]2 [E,,E,]2 | %8
 [D,,D,]2 [F,B,]2 [G,,G,]2 [^G,,^G,]2 | [A,,A,]2 [F,A,]2 [F,,F,]2 [E,,E,]2 | %10
 [D,,D,]2 [F,B,]2 [G,,G,]2 [^G,,^G,]2 | [A,,A,]2 [F,A,E]2 [F,,F,]2 [E,,E,]2 | %12
 [D,,D,]2 [F,B,]2 [G,,G,]2 [^G,,^G,]2 | [A,,A,]2 [F,A,]2 [F,,F,]2 [E,,E,]2 | %14
 [D,,D,]2 D,2 =E,2 ^F,2 |: [G,,G,]2 [G,B,D]2 [B,,B,]2 [G,B,D]2 | %16
 [G,,G,]2 [G,B,D]2 [B,,B,]2 [G,B,D]2 |1 [D,A,C]6 z2 ||1 z8 :|2 [D,A,C]2 ^C, D,2 C,D,C, ||2 %20
 D,2 D,2 G,,2 z2 |: [G,,G,]2 [G,B,D]2 [B,,B,]2 [G,B,D]2 | [G,,G,]2 [G,B,D]2 [B,,B,]2 [G,B,D]2 |1 %23
 [D,A,C]6 z2 ||1 z8 :|2 [D,A,C]2 ^C, D,2 C,D,C, ||2 D,2 D,2 G,,2 z2 |: %27
 [F,,F,]2 [F,A,E]2 [F,,F,]2 [E,,E,]2 | [D,,D,]2 [F,B,]2 [G,,G,]2 [^G,,^G,]2 |1 %29
 [A,,A,]2 [F,A,]2 [F,,F,]2 [E,,E,]2 ||1 [D,,D,]2 [F,B,]2 [G,,G,]2 [^G,,^G,]2 :|2 %31
 [A,,A,]2 [F,A,]2 [F,,F,]2 [E,,E,]2 ||2 [D,,D,]2 [B,,B,]2 [A,,A,]2 [_A,,_A,]2 |: %33
[K:Eb] [G,,G,]2 [G,B,]2 B,,2 [G,B,]2 | E,2 [G,B,]2 B,,2 [G,B,]2 | B,2 [G,B,]2 B,,2 [G,B,]2 | %36
 [B,,F,B,]2 [F,A,B,]2 [F,,F,]2 [F,A,B,]2 | B,,2 =B,,2 C,2 ^C,2 | D,4 z [B,,B,][C,C][^C,^C] | %39
 [D,D]2 z2 z4 | z8 | E,2 [G,B,]2 B,,2 [G,B,]2 | E,2 [G,B,]2 B,,2 [G,B,]2 | %43
 B,2 [G,B,]2 B,,2 [G,B,]2 | [B,,F,B,]2 [F,A,B,]2 [F,,F,]2 [F,A,B,]2 | %45
 B,2 [F,A,B,]2 [F,,F,]2 [F,A,B,]2 | [B,,C]2 [F,A,B,]2 [F,,F,]2 [F,A,B,]2 | B,2 B,2 =A,2 _A,2 |1 %48
 G,2 [B,,B,]2 [=A,,=A,]2 [_A,,_A,]2 :|2 G,2 F,2 G,2 ^G,2 |: %50
[K:Bb] [F,,F,]2 [F,A,E]2 [F,,F,]2 [E,,E,]2 | [D,,D,]2 [F,B,D]2 [F,,F,]2 [^G,,^G,]2 |1 %52
 [A,,A,]2 [F,A,]2 [F,,F,]2 [E,,E,]2 ||1 [D,,D,]2 [F,B,]2 [F,,F,]2 [^G,,^G,]2 :|2 %54
 [A,,A,]2 [F,A,]2 [F,,F,]2 [E,,E,]2 || [D,,D,]2 F,,2 [B,,,B,,]2 z2 | z2 F,,2 [B,,,B,,]2 z2 |] %57

